src/assets/filled/TextBold.svg

<?xml version="1.0" encoding="UTF-8"?>
<svg width="24" height="24" viewBox="0 0 24 24" xmlns="http://www.w3.org/2000/svg">
 <path d="m13.75 12.75h-5.25v3.99c0 0.28 0.23 0.51 0.51 0.51h4.74c1.24 0 2.25-1.01 2.25-2.25s-1.01-2.25-2.25-2.25z"/>
 <path d="m14.5 9c0-1.24-1.01-2.25-2.25-2.25h-3.24c-0.28 0-0.51 0.23-0.51 0.51v3.99h3.75c1.24 0 2.25-1.01 2.25-2.25z"/>
 <path d="m20.95 4.13c-0.29-0.42-0.66-0.79-1.08-1.08-0.95-0.69-2.19-1.05-3.68-1.05h-8.38c-0.2 0-0.4 0.01-0.59 0.03-3.28 0.21-5.22 2.34-5.22 5.78v8.38c0 1.49 0.36 2.73 1.05 3.68 0.29 0.42 0.66 0.79 1.08 1.08 0.82 0.6 1.86 0.95 3.09 1.03 0.19 0.01 0.39 0.02 0.59 0.02h8.38c3.64 0 5.81-2.17 5.81-5.81v-8.38c0-1.49-0.36-2.73-1.05-3.68zm-7.2 14.62h-4.74c-1.11 0-2.01-0.9-2.01-2.01v-9.48c0-1.11 0.9-2.01 2.01-2.01h3.24c2.07 0 3.75 1.68 3.75 3.75 0 0.96-0.37 1.83-0.97 2.49 1.43 0.53 2.47 1.89 2.47 3.51 0 2.07-1.68 3.75-3.75 3.75z"/>
</svg>

<svg width="24" height="24" viewBox="0 0 24 24"  xmlns="http://www.w3.org/2000/svg">
<path d="M13.75 12.75H12.25H8.5V16.74C8.5 17.02 8.73 17.25 9.01 17.25H13.75C14.99 17.25 16 16.24 16 15C16 13.76 14.99 12.75 13.75 12.75Z" />
<path d="M14.5 9C14.5 7.76 13.49 6.75 12.25 6.75H9.01C8.73 6.75 8.5 6.98 8.5 7.26V11.25H12.25C13.49 11.25 14.5 10.24 14.5 9Z" />
<path d="M20.95 4.13C20.66 3.71 20.29 3.34 19.87 3.05C18.92 2.36 17.68 2 16.19 2H7.81C7.61 2 7.41 2.01 7.22 2.03C3.94 2.24 2 4.37 2 7.81V16.19C2 17.68 2.36 18.92 3.05 19.87C3.34 20.29 3.71 20.66 4.13 20.95C4.95 21.55 5.99 21.9 7.22 21.98C7.41 21.99 7.61 22 7.81 22H16.19C19.83 22 22 19.83 22 16.19V7.81C22 6.32 21.64 5.08 20.95 4.13ZM13.75 18.75H9.01C7.9 18.75 7 17.85 7 16.74V12V7.26C7 6.15 7.9 5.25 9.01 5.25H12.25C14.32 5.25 16 6.93 16 9C16 9.96 15.63 10.83 15.03 11.49C16.46 12.02 17.5 13.38 17.5 15C17.5 17.07 15.82 18.75 13.75 18.75Z" />
</svg>
